X: 79
T: Herman the Carpenter
T: Reel, A Dorian
L: 1/16
M: C|
K: A Dorian
|: A4G2E2 G2A2B2d2| e4d2B2 d2e2g2B2| A4G2E2 G2A2B2d2| e2g2d2B2 A4A2G2:| 
|: E2A2A2B2 A4G2E2| G2A2B2A2 G2F2G2D2| E2A2A2B2 A4G2E2| D2B,2G2B,2 A,4A,2G2:| 
|: A4G2E2 G2A2B2d2| e4d2B2 d2e2g2B2| A4G2E2 G2A2B2d2| e2g2d2B2 A4A2G2:| 
|: e2a2a2b2 a4g2e2| g2a2b2a2 g2f2g2d2| e2a2a2b2 a4g2e2| d2B2g2B2 A4A2g2:|
D: Wendy MacIsaac, That's What You Get, WMT004
D: Joe Cormier, Joseph Cormier and Friends, Rounder 7013 (2nd Old Time Wedding Reel)
B: DunGreen Collection as Old Time Wedding Reel #2: Hamish the Carpenter
